internal/server/assets/phishing_en.svg

<svg viewBox="0 0 1834 1409" xmlns="http://www.w3.org/2000/svg" xml:space="preserve" style="fill-rule:evenodd;clip-rule:evenodd;stroke-miterlimit:3">
		<path style="fill:url(#a);fill-rule:nonzero" d="M0 0h440v338H0z" transform="scale(4.16667)"></path>
		<path d="M2.35 84.42 45.28 10.2l.17-.27a23 23 0 0 1 7.05-7.24A17 17 0 0 1 61.57 0a16.7 16.7 0 0 1 9.11 2.69 22.8 22.8 0 0 1 7 7.26q.19.32.36.63l42.23 73.34.24.44a22.5 22.5 0 0 1 2.37 10.19 17.6 17.6 0 0 1-2.17 8.35 15.94 15.94 0 0 1-6.93 6.6c-.19.1-.39.18-.58.26a21.2 21.2 0 0 1-9.11 1.75H16.96a18.1 18.1 0 0 1-6.2-1.15A16.43 16.43 0 0 1 3 104.24a17.54 17.54 0 0 1-3-9.57 23 23 0 0 1 1.57-8.74c.2-.53.458-1.037.77-1.51z" style="fill:#cf1f25;fill-rule:nonzero" transform="translate(222.404 46.342)scale(11.56143)"></path>
		<path d="m9 88.75 43.12-74.59c5.24-8.25 13.54-8.46 18.87 0l42.43 73.69c3.39 6.81 1.71 16-9.33 15.77H17.61c-7.26.18-11.94-6.19-8.61-14.87" style="fill:#fec901" transform="translate(222.404 46.342)scale(11.56143)"></path>
		<path d="M57.57 83.78A5.53 5.53 0 0 1 61 82.2a5.6 5.6 0 0 1 2.4.36c.751.287 1.432.73 2 1.3a5.56 5.56 0 0 1 1.54 5 6.2 6.2 0 0 1-.42 1.35 5.58 5.58 0 0 1-5.22 3.26 5.7 5.7 0 0 1-2.27-.53A5.52 5.52 0 0 1 56.28 90a5.2 5.2 0 0 1-.36-1.27 6 6 0 0 1-.06-1.31 6.5 6.5 0 0 1 .57-2 4.7 4.7 0 0 1 1.14-1.56zm8.15-10.24c-.19 4.79-8.31 4.8-8.49 0-.82-8.21-2.92-29.34-2.86-37.05.07-2.38 2-3.79 4.56-4.33a12.8 12.8 0 0 1 5 0c2.61.56 4.65 2 4.65 4.44v.24z" style="fill:#010101;fill-rule:nonzero" transform="translate(222.404 46.342)scale(11.56143)"></path>
		<path d="M225.208.4a33.6 33.6 0 0 0-23.769 9.844L10.244 201.439A33.6 33.6 0 0 0 .4 225.197v270.404a33.6 33.6 0 0 0 9.844 23.757l191.195 191.207a33.64 33.64 0 0 0 23.769 9.835h270.395a33.6 33.6 0 0 0 23.758-9.835l191.206-191.207a33.63 33.63 0 0 0 9.833-23.757V225.197a33.64 33.64 0 0 0-9.833-23.758L519.361 10.244A33.58 33.58 0 0 0 495.603.4H225.208" style="fill:#fff;stroke:#000;stroke-width:.8px" transform="matrix(.47442 0 0 -.47442 1461.051 365.217)"></path>
		<path d="M226.201 36.403 36.406 226.199V494.61l189.795 189.795H494.61L684.405 494.61V226.199L494.61 36.403z" style="fill:#c1121c" transform="matrix(.47442 0 0 -.47442 1461.051 365.217)"></path>
		<path d="M147.719 489.652c33.548 0 60.792-27.445 60.792-61.225v-13.63h-35.995v13.63c0 13.798-11.076 24.964-24.797 24.964s-24.797-11.166-24.797-24.964c0-15.382-1.857-31.839 15.532-39.027l32.129-13.098c22.88-9.315 37.928-31.658 37.928-56.626v-27.262c0-35.751-28.589-61.258-63.025-61.258-33.548 0-60.791 27.478-60.791 61.258v13.598h35.995v-13.598c0-32.891 51.826-33.2 51.826 0v27.262c0 10.127-6.192 19.343-15.431 23.131l-32.163 13.098c-22.957 9.199-37.994 31.735-37.994 56.625v15.897c0 33.78 27.205 61.225 60.791 61.225m274.561 0c33.47 0 60.725-27.445 60.725-61.225V292.414c0-33.819-27.255-61.258-60.725-61.258-33.548 0-60.792 27.439-60.792 61.258v136.013c0 33.78 27.244 61.225 60.792 61.225m-200.272-2.263h121.583v-33.996h-42.76V233.525h-35.995v219.868h-42.828zm296.991 0h58.559c32.311 0 58.558-26.416 58.558-58.959v-36.261c0-32.466-26.247-58.892-58.558-58.892h-22.597v-99.752h-35.962zm-96.719-33.996c-13.721 0-24.796-11.165-24.796-24.963V292.416c0-13.72 11.075-24.896 24.796-24.896 13.527 0 24.63 11.176 24.63 24.896V428.43c0 13.798-11.103 24.963-24.63 24.963m132.681 0v-86.221h22.597c13.605 0 24.696 11.16 24.696 24.997v36.261c0 13.798-11.091 24.963-24.696 24.963z" style="fill:#fff" transform="matrix(.47442 0 0 -.47442 1461.051 365.217)"></path>
		<path style="fill:#ae84da" d="M36.602 164.389h376.409v40.242H36.602z" transform="scale(4.16667)"></path>
		<text style="font-family:'Arial-BoldMT','Arial',sans-serif;font-weight:700;font-size:13.333px" transform="translate(180.938 790.463)scale(4.16667)">W<tspan x="11.849px 21.478px" y="0px 0px">AR</tspan>NUNG: GEBEN SIE HIER</text>
		<text x="190.384" style="font-family:'Arial-BoldMT','Arial',sans-serif;font-weight:700;font-size:13.333px;fill:red" transform="translate(180.938 790.463)scale(4.16667)">NICHT</text>
		<text x="234.824" style="font-family:'Arial-BoldMT','Arial',sans-serif;font-weight:700;font-size:13.333px" transform="translate(180.938 790.463)scale(4.16667)">IHR P<tspan x="269.394px 279.023px" y="0px 0px">AS</tspan>SWORT EIN</text>
		<path d="m32 0 22.627 9.373L64 32l-9.373 22.627L32 64 9.373 54.627 0 32 9.373 9.373z" style="fill-rule:nonzero" transform="rotate(-22.5 2843.419 450.206)scale(4.50996)"></path>
		<path d="m32 0 22.627 9.373L64 32l-9.373 22.627L32 64 9.373 54.627 0 32 9.373 9.373z" style="fill:#2d0909;fill-rule:nonzero" transform="rotate(-22.5 2852.51 436.621)scale(4.36905)"></path>
		<path d="m32 0 22.627 9.373L64 32l-9.373 22.627L32 64 9.373 54.627 0 32 9.373 9.373z" style="fill:#5a1212;fill-rule:nonzero" transform="rotate(-22.5 2861.588 423.025)scale(4.22809)"></path>
		<path d="m32 0 22.627 9.373L64 32l-9.373 22.627L32 64 9.373 54.627 0 32 9.373 9.373z" style="fill:#861b1b;fill-rule:nonzero" transform="rotate(-22.5 2870.669 409.434)scale(4.08717)"></path>
		<path d="M43.733 4.135 60 20.593l-.135 23.14L43.407 60l-23.14-.135L4 43.407l.135-23.14L20.593 4z" style="fill:#b32424;fill-rule:nonzero" transform="translate(99.383 1067.172)scale(4.16667)"></path>
		<path d="M32.329 53.898c-7.872 0-15.313 0-15.313-21-.016-19 3.454-15.337 5.104-13.78l.105-3.279c.078-2.428 5.85-2.281 5.855-.367l.014-3.007c.015-3.182 6.692-2.86 6.748-.749l.107 4.102c.061-2.312 5.25-3.186 5.405 1.313 0 7-.061 14.535-.154 16.767 2.706 3 5.688-11.642 10.916-8.955 2.337 2.438-6.765 19.625-7.749 21.438-.939 1.73-5.135 7.517-11.038 7.517Z" style="fill:#fff;fill-rule:nonzero;stroke:#000;stroke-width:2px;stroke-linejoin:round;stroke-miterlimit:4" transform="translate(99.383 1067.172)scale(4.16667)"></path>
		<path d="M28.5 12.898v18m5.875-18 .125 19m3 5.5s-5 1-7 11m-8-30.5v15.125m-2.625 2c4.25-4.604 12.375-4.396 16.75-2.875" style="fill:none;fill-rule:nonzero;stroke:#000;stroke-width:1px;stroke-miterlimit:4" transform="translate(99.383 1067.172)scale(4.16667)"></path>
		<defs>
			<linearGradient id="a" x1="0" y1="0" x2="1" y2="0" gradientUnits="userSpaceOnUse" gradientTransform="rotate(-90.52 257.744 26.967)scale(230.11146)">
				<stop offset="0" style="stop-color:#ad0000;stop-opacity:1"></stop>
				<stop offset="1" style="stop-color:#ff7500;stop-opacity:1"></stop>
			</linearGradient>
		</defs>
	</svg>

<?xml version="1.0" encoding="UTF-8" standalone="no"?>
<!DOCTYPE svg PUBLIC "-//W3C//DTD SVG 1.1//EN" "http://www.w3.org/Graphics/SVG/1.1/DTD/svg11.dtd">
<svg width="100%" height="100%" viewBox="0 0 1834 1409" version="1.1" xmlns="http://www.w3.org/2000/svg" xmlns:xlink="http://www.w3.org/1999/xlink" xml:space="preserve" xmlns:serif="http://www.serif.com/" style="fill-rule:evenodd;clip-rule:evenodd;stroke-miterlimit:3;">
    <g transform="matrix(4.16667,0,0,4.16667,0,0)">
        <g id="NOK">
            <rect id="Background" x="0" y="0" width="440" height="338" style="fill:url(#_Linear1);fill-rule:nonzero;"/>
            <g id="warning-sign" transform="matrix(2.77474,0,0,2.77474,53.3771,11.1223)">
                <path id="path1" d="M2.35,84.42L45.28,10.2L45.45,9.93C47.234,7.024 49.642,4.551 52.5,2.69C55.208,0.953 58.353,0.02 61.57,0C64.803,-0.004 67.968,0.931 70.68,2.69C73.526,4.557 75.918,7.038 77.68,9.95C77.807,10.163 77.927,10.373 78.04,10.58L120.27,83.92L120.51,84.36C122.09,87.523 122.902,91.014 122.88,94.55C122.859,97.47 122.114,100.339 120.71,102.9C119.131,105.757 116.711,108.062 113.78,109.5C113.59,109.6 113.39,109.68 113.2,109.76C110.33,111.009 107.219,111.607 104.09,111.51L16.96,111.51C14.842,111.493 12.743,111.104 10.76,110.36C7.607,109.165 4.897,107.028 3,104.24C1.09,101.411 0.047,98.084 -0,94.67C-0.049,91.682 0.484,88.714 1.57,85.93C1.77,85.4 2.028,84.893 2.34,84.42L2.35,84.42Z" style="fill:rgb(207,31,37);fill-rule:nonzero;"/>
                <path id="path2-3" d="M9,88.75L52.12,14.16C57.36,5.91 65.66,5.7 70.99,14.16L113.42,87.85C116.81,94.66 115.13,103.85 104.09,103.62L17.61,103.62C10.35,103.8 5.67,97.43 9,88.75Z" style="fill:rgb(254,201,1);"/>
                <path id="path3" d="M57.57,83.78C58.492,82.867 59.707,82.308 61,82.2C61.817,82.143 62.636,82.266 63.4,82.56C64.151,82.847 64.832,83.29 65.4,83.86C66.713,85.165 67.292,87.043 66.94,88.86C66.852,89.324 66.711,89.777 66.52,90.21C65.595,92.243 63.532,93.53 61.3,93.47C60.515,93.451 59.742,93.271 59.03,92.94C57.776,92.342 56.793,91.291 56.28,90C56.106,89.594 55.985,89.167 55.92,88.73C55.851,88.297 55.831,87.858 55.86,87.42C55.942,86.727 56.134,86.052 56.43,85.42C56.698,84.827 57.086,84.295 57.57,83.86L57.57,83.78ZM65.72,73.54C65.53,78.33 57.41,78.34 57.23,73.54C56.41,65.33 54.31,44.2 54.37,36.49C54.44,34.11 56.37,32.7 58.93,32.16C60.581,31.832 62.279,31.832 63.93,32.16C66.54,32.72 68.58,34.16 68.58,36.6L68.58,36.84L65.72,73.54Z" style="fill:rgb(1,1,1);fill-rule:nonzero;"/>
            </g>
            <g id="stop" transform="matrix(0.113858,0,0,-0.113858,350.652,87.6519)">
                <path id="path6612" d="M225.208,0.4C216.29,0.4 207.747,3.939 201.439,10.244L10.244,201.439C3.939,207.744 0.4,216.29 0.4,225.197L0.4,495.601C0.4,504.51 3.939,513.053 10.244,519.358L201.439,710.565C207.747,716.861 216.29,720.4 225.208,720.4L495.603,720.4C504.51,720.4 513.065,716.861 519.361,710.565L710.567,519.358C716.861,513.053 720.4,504.51 720.4,495.601L720.4,225.197C720.4,216.29 716.861,207.744 710.567,201.439L519.361,10.244C513.065,3.939 504.51,0.4 495.603,0.4L225.208,0.4" style="fill:white;stroke:black;stroke-width:0.8px;"/>
                <path id="path6614" d="M226.201,36.403L36.406,226.199L36.406,494.61L226.201,684.405L494.61,684.405L684.405,494.61L684.405,226.199L494.61,36.403L226.201,36.403" style="fill:rgb(193,18,28);"/>
                <path id="path6616" d="M147.719,489.652C181.267,489.652 208.511,462.207 208.511,428.427L208.511,414.797L172.516,414.797L172.516,428.427C172.516,442.225 161.44,453.391 147.719,453.391C133.999,453.391 122.922,442.225 122.922,428.427C122.922,413.045 121.065,396.588 138.454,389.4L170.583,376.302C193.463,366.987 208.511,344.644 208.511,319.676L208.511,292.414C208.511,256.663 179.922,231.156 145.486,231.156C111.938,231.156 84.695,258.634 84.695,292.414L84.695,306.012L120.69,306.012L120.69,292.414C120.69,259.523 172.516,259.214 172.516,292.414L172.516,319.676C172.516,329.803 166.324,339.019 157.085,342.807L124.922,355.905C101.965,365.104 86.928,387.64 86.928,412.53L86.928,428.427C86.928,462.207 114.133,489.652 147.719,489.652ZM422.28,489.652C455.75,489.652 483.005,462.207 483.005,428.427L483.005,292.414C483.005,258.595 455.75,231.156 422.28,231.156C388.732,231.156 361.488,258.595 361.488,292.414L361.488,428.427C361.488,462.207 388.732,489.652 422.28,489.652ZM222.008,487.389L343.591,487.389L343.591,453.393L300.831,453.393L300.831,233.525L264.836,233.525L264.836,453.393L222.008,453.393L222.008,487.389ZM518.999,487.389L577.558,487.389C609.869,487.389 636.116,460.973 636.116,428.43L636.116,392.169C636.116,359.703 609.869,333.277 577.558,333.277L554.961,333.277L554.961,233.525L518.999,233.525L518.999,487.389ZM422.28,453.393C408.559,453.393 397.484,442.228 397.484,428.43L397.484,292.416C397.484,278.696 408.559,267.52 422.28,267.52C435.807,267.52 446.91,278.696 446.91,292.416L446.91,428.43C446.91,442.228 435.807,453.393 422.28,453.393ZM554.961,453.393L554.961,367.172L577.558,367.172C591.163,367.172 602.254,378.332 602.254,392.169L602.254,428.43C602.254,442.228 591.163,453.393 577.558,453.393L554.961,453.393Z" style="fill:white;"/>
            </g>
            <rect id="rectal-rectangle" x="36.602" y="164.389" width="376.409" height="40.242" style="fill:rgb(174,132,218);"/>
            <g id="warning-text-en" transform="matrix(1,0,0,1,57.4249,189.711)">
                <text x="0px" y="0px" style="font-family:'Arial-BoldMT', 'Arial', sans-serif;font-weight:700;font-size:13.333px;">W<tspan x="11.849px 21.478px " y="0px 0px ">AR</tspan>NING: DO</text>
                <text x="96.289px" y="0px" style="font-family:'Arial-BoldMT', 'Arial', sans-serif;font-weight:700;font-size:13.333px;fill:rgb(255,0,0);">NOT</text>
                <g transform="matrix(13.3333,0,0,13.3333,337.297,0)">
                </g>
                <text x="128.138px" y="0px" style="font-family:'Arial-BoldMT', 'Arial', sans-serif;font-weight:700;font-size:13.333px;">ENTER <tspan x="176.79px 185.683px " y="0px 0px ">YO</tspan>UR P<tspan x="226.92px 236.549px " y="0px 0px ">AS</tspan>SWORD HERE</text>
            </g>
            <g id="stop_hand" transform="matrix(1,0,0,1,23.852,256.121)">
                <g id="path1-3" transform="matrix(1,-0.414213,0.414213,1,-13.2548,13.2548)">
                    <path d="M32,0L54.627,9.373L64,32L54.627,54.627L32,64L9.373,54.627L0,32L9.373,9.373L32,0Z" style="fill-rule:nonzero;"/>
                </g>
                <g id="path2-6" transform="matrix(0.96875,-0.401269,0.401269,0.96875,-11.8406,13.8406)">
                    <path d="M32,0L54.627,9.373L64,32L54.627,54.627L32,64L9.373,54.627L0,32L9.373,9.373L32,0Z" style="fill:rgb(45,9,9);fill-rule:nonzero;"/>
                </g>
                <g id="path3-7" transform="matrix(0.9375,-0.388325,0.388325,0.9375,-10.4264,14.4264)">
                    <path d="M32,0L54.627,9.373L64,32L54.627,54.627L32,64L9.373,54.627L0,32L9.373,9.373L32,0Z" style="fill:rgb(90,18,18);fill-rule:nonzero;"/>
                </g>
                <g id="path4-5" transform="matrix(0.90625,-0.375381,0.375381,0.90625,-9.01218,15.0122)">
                    <path d="M32,0L54.627,9.373L64,32L54.627,54.627L32,64L9.373,54.627L0,32L9.373,9.373L32,0L32,0Z" style="fill:rgb(134,27,27);fill-rule:nonzero;"/>
                </g>
                <path id="path5" d="M43.733,4.135L60,20.593L59.865,43.733L43.407,60L20.267,59.865L4,43.407L4.135,20.267L20.593,4L43.733,4.135Z" style="fill:rgb(179,36,36);fill-rule:nonzero;"/>
                <path id="path6" d="M32.329,53.898C24.457,53.898 17.016,53.898 17.016,32.898C17,13.898 20.47,17.561 22.12,19.118L22.225,15.839C22.303,13.411 28.075,13.558 28.08,15.472L28.094,12.465C28.109,9.283 34.786,9.605 34.842,11.716L34.949,15.818C35.01,13.506 40.199,12.632 40.354,17.131C40.354,24.131 40.293,31.666 40.2,33.898C42.906,36.898 45.888,22.256 51.116,24.943C53.453,27.381 44.351,44.568 43.367,46.381C42.428,48.111 38.232,53.898 32.329,53.898Z" style="fill:white;fill-rule:nonzero;stroke:black;stroke-width:2px;stroke-linejoin:round;stroke-miterlimit:4;"/>
                <path id="path7" d="M28.5,12.898L28.5,30.898" style="fill:none;fill-rule:nonzero;stroke:black;stroke-width:1px;stroke-miterlimit:4;"/>
                <path id="path8" d="M34.375,12.898L34.5,31.898" style="fill:none;fill-rule:nonzero;stroke:black;stroke-width:1px;stroke-miterlimit:4;"/>
                <path id="path9" d="M37.5,37.398C37.5,37.398 32.5,38.398 30.5,48.398" style="fill:none;fill-rule:nonzero;stroke:black;stroke-width:1px;stroke-miterlimit:4;"/>
                <path id="path10" d="M22.5,17.898L22.5,33.023" style="fill:none;fill-rule:nonzero;stroke:black;stroke-width:1px;stroke-miterlimit:4;"/>
                <path id="path11" d="M19.875,35.023C24.125,30.419 32.25,30.627 36.625,32.148" style="fill:none;fill-rule:nonzero;stroke:black;stroke-width:1px;stroke-miterlimit:4;"/>
            </g>
        </g>
    </g>
    <defs>
        <linearGradient id="_Linear1" x1="0" y1="0" x2="1" y2="0" gradientUnits="userSpaceOnUse" gradientTransform="matrix(-2.08642,-230.102,230.102,-2.08642,233.115,284.945)"><stop offset="0" style="stop-color:rgb(173,0,0);stop-opacity:1"/><stop offset="1" style="stop-color:rgb(255,117,0);stop-opacity:1"/></linearGradient>
    </defs>
</svg>
